images/indikatorenset/5870.svg

<?xml version="1.0" standalone="no"?><!DOCTYPE svg PUBLIC "-//W3C//DTD SVG 1.1//EN" "http://www.w3.org/Graphics/SVG/1.1/DTD/svg11.dtd"><svg xmlns:xlink="http://www.w3.org/1999/xlink" version="1.1" class="highcharts-root" style="font-family:arial;font-size:12px;" xmlns="http://www.w3.org/2000/svg" width="665" height="208"><desc>Created with Highstock 5.0.14</desc><defs><clipPath id="highcharts-a42196b-8"><rect x="0" y="0" width="574" height="131" fill="none"></rect></clipPath><clipPath id="highcharts-a42196b-9"><rect x="0" y="0" width="574" height="131" fill="none"></rect></clipPath><clipPath id="highcharts-a42196b-10"><rect x="0" y="0" width="574" height="131" fill="none"></rect></clipPath></defs><rect fill="#fbfbfb" class="highcharts-background" x="0" y="0" width="665" height="208" rx="0" ry="0"></rect><rect fill="none" class="highcharts-plot-background" x="58" y="48" width="574" height="131"></rect><g class="highcharts-pane-group"></g><g class="highcharts-grid highcharts-xaxis-grid "><path fill="none" class="highcharts-grid-line" d="M 71.5 48 L 71.5 179" opacity="1"></path><path fill="none" class="highcharts-grid-line" d="M 129.5 48 L 129.5 179" opacity="1"></path><path fill="none" class="highcharts-grid-line" d="M 186.5 48 L 186.5 179" opacity="1"></path><path fill="none" class="highcharts-grid-line" d="M 244.5 48 L 244.5 179" opacity="1"></path><path fill="none" class="highcharts-grid-line" d="M 301.5 48 L 301.5 179" opacity="1"></path><path fill="none" class="highcharts-grid-line" d="M 358.5 48 L 358.5 179" opacity="1"></path><path fill="none" class="highcharts-grid-line" d="M 416.5 48 L 416.5 179" opacity="1"></path><path fill="none" class="highcharts-grid-line" d="M 473.5 48 L 473.5 179" opacity="1"></path><path fill="none" class="highcharts-grid-line" d="M 531.5 48 L 531.5 179" opacity="1"></path><path fill="none" class="highcharts-grid-line" d="M 588.5 48 L 588.5 179" opacity="1"></path></g><g class="highcharts-grid highcharts-yaxis-grid "><path fill="none" stroke="#e6e6e6" stroke-width="1" class="highcharts-grid-line" d="M 58 179.5 L 632 179.5" opacity="1"></path><path fill="none" stroke="#e6e6e6" stroke-width="1" class="highcharts-grid-line" d="M 58 114.5 L 632 114.5" opacity="1"></path><path fill="none" stroke="#e6e6e6" stroke-width="1" class="highcharts-grid-line" d="M 58 47.5 L 632 47.5" opacity="1"></path></g><g class="highcharts-grid highcharts-yaxis-grid "><path fill="none" stroke="#e6e6e6" stroke-width="1" class="highcharts-grid-line" d="M 58 179.5 L 632 179.5" opacity="1"></path><path fill="none" stroke="#e6e6e6" stroke-width="1" class="highcharts-grid-line" d="M 58 114.5 L 632 114.5" opacity="1"></path><path fill="none" stroke="#e6e6e6" stroke-width="1" class="highcharts-grid-line" d="M 58 47.5 L 632 47.5" opacity="1"></path></g><rect fill="none" class="highcharts-plot-border" x="58" y="48" width="574" height="131"></rect><g class="highcharts-axis highcharts-xaxis "><path fill="none" class="highcharts-tick" stroke="#FFFFFF" stroke-width="1" d="M 71.5 179 L 71.5 189" opacity="1"></path><path fill="none" class="highcharts-tick" stroke="#FFFFFF" stroke-width="1" d="M 129.5 179 L 129.5 189" opacity="1"></path><path fill="none" class="highcharts-tick" stroke="#FFFFFF" stroke-width="1" d="M 186.5 179 L 186.5 189" opacity="1"></path><path fill="none" class="highcharts-tick" stroke="#FFFFFF" stroke-width="1" d="M 244.5 179 L 244.5 189" opacity="1"></path><path fill="none" class="highcharts-tick" stroke="#FFFFFF" stroke-width="1" d="M 301.5 179 L 301.5 189" opacity="1"></path><path fill="none" class="highcharts-tick" stroke="#FFFFFF" stroke-width="1" d="M 358.5 179 L 358.5 189" opacity="1"></path><path fill="none" class="highcharts-tick" stroke="#FFFFFF" stroke-width="1" d="M 416.5 179 L 416.5 189" opacity="1"></path><path fill="none" class="highcharts-tick" stroke="#FFFFFF" stroke-width="1" d="M 473.5 179 L 473.5 189" opacity="1"></path><path fill="none" class="highcharts-tick" stroke="#FFFFFF" stroke-width="1" d="M 531.5 179 L 531.5 189" opacity="1"></path><path fill="none" class="highcharts-tick" stroke="#FFFFFF" stroke-width="1" d="M 588.5 179 L 588.5 189" opacity="1"></path><path fill="none" class="highcharts-axis-line" stroke="#B9CFD7" stroke-width="0.5" d="M 58 179.25 L 632 179.25"></path></g><g class="highcharts-axis highcharts-yaxis "><path fill="none" class="highcharts-axis-line" d="M 58 48 L 58 179"></path></g><g class="highcharts-axis highcharts-yaxis "><path fill="none" class="highcharts-axis-line" d="M 632 48 L 632 179"></path></g><g class="highcharts-series-group"><g class="highcharts-series highcharts-series-0 highcharts-column-series highcharts-color-undefined " transform="translate(58,48) scale(1 1)" clip-path="url(#highcharts-a42196b-9)"><rect x="9" y="26" width="10" height="28" fill="#71A3B5" class="highcharts-point"></rect><rect x="38" y="27" width="10" height="28" fill="#71A3B5" class="highcharts-point"></rect><rect x="67" y="28" width="10" height="29" fill="#71A3B5" class="highcharts-point"></rect><rect x="95" y="29" width="10" height="28" fill="#71A3B5" class="highcharts-point"></rect><rect x="124" y="30" width="10" height="28" fill="#71A3B5" class="highcharts-point"></rect><rect x="153" y="29" width="10" height="30" fill="#71A3B5" class="highcharts-point"></rect><rect x="182" y="29" width="10" height="31" fill="#71A3B5" class="highcharts-point"></rect><rect x="210" y="29" width="10" height="31" fill="#71A3B5" class="highcharts-point"></rect><rect x="239" y="29" width="10" height="32" fill="#71A3B5" class="highcharts-point"></rect><rect x="268" y="29" width="10" height="32" fill="#71A3B5" class="highcharts-point"></rect><rect x="296" y="29" width="10" height="33" fill="#71A3B5" class="highcharts-point"></rect><rect x="325" y="29" width="10" height="32" fill="#71A3B5" class="highcharts-point"></rect><rect x="354" y="28" width="10" height="34" fill="#71A3B5" class="highcharts-point"></rect><rect x="382" y="28" width="10" height="34" fill="#71A3B5" class="highcharts-point"></rect><rect x="411" y="27" width="10" height="35" fill="#71A3B5" class="highcharts-point"></rect><rect x="440" y="26" width="10" height="36" fill="#71A3B5" class="highcharts-point"></rect><rect x="469" y="25" width="10" height="37" fill="#71A3B5" class="highcharts-point"></rect><rect x="497" y="25" width="10" height="37" fill="#71A3B5" class="highcharts-point"></rect><rect x="526" y="24" width="10" height="38" fill="#71A3B5" class="highcharts-point"></rect><rect x="555" y="24" width="10" height="38" fill="#71A3B5" class="highcharts-point"></rect></g><g class="highcharts-markers highcharts-series-0 highcharts-column-series highcharts-color-undefined " transform="translate(58,48) scale(1 1)" clip-path="none"></g><g class="highcharts-series highcharts-series-1 highcharts-column-series highcharts-color-undefined " transform="translate(58,48) scale(1 1)" clip-path="url(#highcharts-a42196b-9)"><rect x="9" y="54" width="10" height="78" fill="#990300" class="highcharts-point"></rect><rect x="38" y="55" width="10" height="77" fill="#990300" class="highcharts-point"></rect><rect x="67" y="57" width="10" height="75" fill="#990300" class="highcharts-point"></rect><rect x="95" y="57" width="10" height="75" fill="#990300" class="highcharts-point"></rect><rect x="124" y="58" width="10" height="74" fill="#990300" class="highcharts-point"></rect><rect x="153" y="59" width="10" height="73" fill="#990300" class="highcharts-point"></rect><rect x="182" y="60" width="10" height="72" fill="#990300" class="highcharts-point"></rect><rect x="210" y="60" width="10" height="72" fill="#990300" class="highcharts-point"></rect><rect x="239" y="61" width="10" height="71" fill="#990300" class="highcharts-point"></rect><rect x="268" y="61" width="10" height="71" fill="#990300" class="highcharts-point"></rect><rect x="296" y="62" width="10" height="70" fill="#990300" class="highcharts-point"></rect><rect x="325" y="61" width="10" height="71" fill="#990300" class="highcharts-point"></rect><rect x="354" y="62" width="10" height="70" fill="#990300" class="highcharts-point"></rect><rect x="382" y="62" width="10" height="70" fill="#990300" class="highcharts-point"></rect><rect x="411" y="62" width="10" height="70" fill="#990300" class="highcharts-point"></rect><rect x="440" y="62" width="10" height="70" fill="#990300" class="highcharts-point"></rect><rect x="469" y="62" width="10" height="70" fill="#990300" class="highcharts-point"></rect><rect x="497" y="62" width="10" height="70" fill="#990300" class="highcharts-point"></rect><rect x="526" y="62" width="10" height="70" fill="#990300" class="highcharts-point"></rect><rect x="555" y="62" width="10" height="70" fill="#990300" class="highcharts-point"></rect></g><g class="highcharts-markers highcharts-series-1 highcharts-column-series highcharts-color-undefined " transform="translate(58,48) scale(1 1)" clip-path="none"></g><g class="highcharts-series highcharts-series-2 highcharts-line-series highcharts-color-undefined " transform="translate(58,48) scale(1 1)" clip-path="url(#highcharts-a42196b-10)"><path fill="none" d="M 14.35 43.374660880429985 L 43.05 42.531821091965014 L 71.75 40.86132659454749 L 100.45 40.7426039741525 L 129.15 39.04583935702 L 157.85 36.44191952776501 L 186.55 34.502056181114995 L 215.25 32.86138096447 L 243.95 31.324419966115002 L 272.65 28.84634063243 L 301.35 28.363590425622505 L 330.05 26.766554474920014 L 358.75 24.285957603212495 L 387.45 23.57325772180249 L 416.15 21.714547887412493 L 444.85 20.071624995692503 L 473.55 17.813705176059997 L 502.25 16.3514131857075 L 530.95 15.435698566222499 L 559.65 14.002431813569999" class="highcharts-graph" stroke="#000000" stroke-width="2" stroke-linejoin="round" stroke-linecap="round"></path></g><g class="highcharts-markers highcharts-series-2 highcharts-line-series highcharts-color-undefined " transform="translate(58,48) scale(1 1)" clip-path="none"></g></g><text x="3" text-anchor="start" class="highcharts-title" style="color:#000000;font-size:10px;font-weight:bold;fill:#000000;" y="14"><tspan>Bevölkerung am Jahresende</tspan></text><g class="highcharts-legend" transform="translate(48,7)"><rect fill="none" class="highcharts-legend-box" rx="0" ry="0" x="0" y="0" width="261" height="29" visibility="visible"></rect><g><g><g class="highcharts-legend-item highcharts-column-series highcharts-color-undefined highcharts-series-1" transform="translate(8,3)"><text x="21" style="color:#333333;font-size:10px;font-weight:normal;cursor:pointer;fill:#333333;" text-anchor="start" y="13"><tspan>Schweiz</tspan></text><rect x="3" y="4" width="10" height="10" fill="#990300" class="highcharts-point"></rect></g><g class="highcharts-legend-item highcharts-column-series highcharts-color-undefined highcharts-series-0" transform="translate(86.1875,3)"><text x="21" y="13" style="color:#333333;font-size:10px;font-weight:normal;cursor:pointer;fill:#333333;" text-anchor="start"><tspan>Ausland</tspan></text><rect x="3" y="4" width="10" height="10" fill="#71A3B5" class="highcharts-point"></rect></g><g class="highcharts-legend-item highcharts-line-series highcharts-color-undefined highcharts-series-2" transform="translate(163.25,3)"><path fill="none" d="M 0 10 L 16 10" class="highcharts-graph" stroke="#000000" stroke-width="2"></path><text x="21" y="13" style="color:#333333;font-size:10px;font-weight:normal;cursor:pointer;fill:#333333;" text-anchor="start"><tspan>Ausländeranteil</tspan></text></g></g></g></g><g class="highcharts-axis-labels highcharts-xaxis-labels "><text x="72.35" style="color:#000000;cursor:default;font-size:10;fill:#000000;" text-anchor="middle" transform="translate(0,0)" y="199" opacity="1">1997</text><text x="129.75" style="color:#000000;cursor:default;font-size:10;fill:#000000;" text-anchor="middle" transform="translate(0,0)" y="199" opacity="1">1999</text><text x="187.15" style="color:#000000;cursor:default;font-size:10;fill:#000000;" text-anchor="middle" transform="translate(0,0)" y="199" opacity="1">2001</text><text x="244.54999999999998" style="color:#000000;cursor:default;font-size:10;fill:#000000;" text-anchor="middle" transform="translate(0,0)" y="199" opacity="1">2003</text><text x="301.95" style="color:#000000;cursor:default;font-size:10;fill:#000000;" text-anchor="middle" transform="translate(0,0)" y="199" opacity="1">2005</text><text x="359.35" style="color:#000000;cursor:default;font-size:10;fill:#000000;" text-anchor="middle" transform="translate(0,0)" y="199" opacity="1">2007</text><text x="416.75" style="color:#000000;cursor:default;font-size:10;fill:#000000;" text-anchor="middle" transform="translate(0,0)" y="199" opacity="1">2009</text><text x="474.15000000000003" style="color:#000000;cursor:default;font-size:10;fill:#000000;" text-anchor="middle" transform="translate(0,0)" y="199" opacity="1">2011</text><text x="531.55" style="color:#000000;cursor:default;font-size:10;fill:#000000;" text-anchor="middle" transform="translate(0,0)" y="199" opacity="1">2013</text><text x="588.95" style="color:#000000;cursor:default;font-size:10;fill:#000000;" text-anchor="middle" transform="translate(0,0)" y="199" opacity="1">2015</text></g><g class="highcharts-axis-labels highcharts-yaxis-labels "><text x="43" style="color:#666666;cursor:default;font-size:11px;fill:#666666;" text-anchor="end" transform="translate(0,0)" y="184" opacity="1"><tspan>0</tspan></text><text x="43" style="color:#666666;cursor:default;font-size:11px;fill:#666666;" text-anchor="end" transform="translate(0,0)" y="118" opacity="1"><tspan>120 000</tspan></text><text x="43" style="color:#666666;cursor:default;font-size:11px;fill:#666666;" text-anchor="end" transform="translate(0,0)" y="53" opacity="1"><tspan>240 000</tspan></text></g><g class="highcharts-axis-labels highcharts-yaxis-labels "><text x="647" style="color:#666666;cursor:default;font-size:11px;fill:#666666;" text-anchor="start" transform="translate(0,0)" y="184" opacity="1"><tspan>0.0</tspan></text><text x="647" style="color:#666666;cursor:default;font-size:11px;fill:#666666;" text-anchor="start" transform="translate(0,0)" y="118" opacity="1"><tspan>0.2</tspan></text><text x="647" style="color:#666666;cursor:default;font-size:11px;fill:#666666;" text-anchor="start" transform="translate(0,0)" y="53" opacity="1"><tspan>0.4</tspan></text></g><text x="10" class="highcharts-credits" text-anchor="start" style="cursor:default;color:#000000;font-size:10;fill:#000000;" y="193"><tspan>Quelle: Statistisches Amt Basel-Stadt, kantonale Bevölkerungsstatistik</tspan></text></svg>

<svg class="highcharts-root" xmlns="http://www.w3.org/2000/svg" width="665" height="208" font-family="arial" font-size="12">
    <defs>
        <clipPath id="a">
            <path fill="none" d="M0 0h574v131H0z"/>
        </clipPath>
        <clipPath id="b">
            <path fill="none" d="M0 0h574v131H0z"/>
        </clipPath>
    </defs>
    <rect fill="#fbfbfb" class="highcharts-background" width="665" height="208" rx="0" ry="0"/>
    <path fill="none" class="highcharts-plot-background" d="M58 48h574v131H58z"/>
    <g class="highcharts-grid highcharts-xaxis-grid">
        <path fill="none" class="highcharts-grid-line" d="M71.5 48v131m58-131v131m57-131v131m58-131v131m57-131v131m57-131v131m58-131v131m57-131v131m58-131v131m57-131v131"/>
    </g>
    <g class="highcharts-grid highcharts-yaxis-grid">
        <path fill="none" stroke="#e6e6e6" class="highcharts-grid-line" d="M58 179.5h574m-574-65h574m-574-67h574"/>
    </g>
    <g class="highcharts-grid highcharts-yaxis-grid">
        <path fill="none" stroke="#e6e6e6" class="highcharts-grid-line" d="M58 179.5h574m-574-65h574m-574-67h574"/>
    </g>
    <path fill="none" class="highcharts-plot-border" d="M58 48h574v131H58z"/>
    <g class="highcharts-axis highcharts-xaxis">
        <path fill="none" class="highcharts-tick" stroke="#FFF" d="M71.5 179v10m58-10v10m57-10v10m58-10v10m57-10v10m57-10v10m58-10v10m57-10v10m58-10v10m57-10v10"/>
        <path fill="none" class="highcharts-axis-line" stroke="#B9CFD7" stroke-width=".5" d="M58 179.25h574"/>
    </g>
    <g class="highcharts-axis highcharts-yaxis">
        <path fill="none" class="highcharts-axis-line" d="M58 48v131"/>
    </g>
    <g class="highcharts-axis highcharts-yaxis">
        <path fill="none" class="highcharts-axis-line" d="M632 48v131"/>
    </g>
    <g class="highcharts-series-group">
        <g class="highcharts-series highcharts-series-0 highcharts-column-series highcharts-color-undefined" transform="translate(58 48)" clip-path="url(#a)">
            <path fill="#71A3B5" class="highcharts-point" d="M9 26h10v28H9zm29 1h10v28H38zm29 1h10v29H67zm28 1h10v28H95zm29 1h10v28h-10zm29-1h10v30h-10zm29 0h10v31h-10zm28 0h10v31h-10zm29 0h10v32h-10zm29 0h10v32h-10zm28 0h10v33h-10zm29 0h10v32h-10zm29-1h10v34h-10zm28 0h10v34h-10zm29-1h10v35h-10zm29-1h10v36h-10zm29-1h10v37h-10zm28 0h10v37h-10zm29-1h10v38h-10zm29 0h10v38h-10z"/>
        </g>
        <g class="highcharts-series highcharts-series-1 highcharts-column-series highcharts-color-undefined" transform="translate(58 48)" clip-path="url(#a)">
            <path fill="#990300" class="highcharts-point" d="M9 54h10v78H9zm29 1h10v77H38zm29 2h10v75H67zm28 0h10v75H95zm29 1h10v74h-10zm29 1h10v73h-10zm29 1h10v72h-10zm28 0h10v72h-10zm29 1h10v71h-10zm29 0h10v71h-10zm28 1h10v70h-10zm29-1h10v71h-10zm29 1h10v70h-10zm28 0h10v70h-10zm29 0h10v70h-10zm29 0h10v70h-10zm29 0h10v70h-10zm28 0h10v70h-10zm29 0h10v70h-10zm29 0h10v70h-10z"/>
        </g>
        <g class="highcharts-series highcharts-series-2 highcharts-line-series highcharts-color-undefined" transform="translate(58 48)" clip-path="url(#b)">
            <path fill="none" d="M14.35 43.375l28.7-.843 28.7-1.67 28.7-.12 28.7-1.696 28.7-2.604 28.7-1.94 28.7-1.64 28.7-1.538 28.7-2.478 28.7-.482 28.7-1.597 28.7-2.481 28.7-.713 28.7-1.858 28.7-1.643 28.7-2.258 28.7-1.463 28.7-.915 28.7-1.434" class="highcharts-graph" stroke="#000" stroke-width="2" stroke-linejoin="round" stroke-linecap="round"/>
        </g>
    </g>
    <text x="3" class="highcharts-title" y="14" color="#000" font-size="10" font-weight="700">
        <tspan>Bevölkerung am Jahresende</tspan>
    </text>
    <g class="highcharts-legend" transform="translate(48 7)">
        <rect fill="none" class="highcharts-legend-box" rx="0" ry="0" width="261" height="29"/>
        <g class="highcharts-legend-item highcharts-column-series highcharts-color-undefined highcharts-series-1">
            <text x="21" y="13" color="#333" font-size="10" font-weight="400" cursor="pointer" fill="#333" transform="translate(8 3)">
                <tspan>Schweiz</tspan>
            </text>
            <path fill="#990300" class="highcharts-point" d="M11 7h10v10H11z"/>
        </g>
        <g class="highcharts-legend-item highcharts-column-series highcharts-color-undefined highcharts-series-0">
            <text x="21" y="13" color="#333" font-size="10" font-weight="400" cursor="pointer" fill="#333" transform="translate(86.188 3)">
                <tspan>Ausland</tspan>
            </text>
            <path fill="#71A3B5" class="highcharts-point" d="M89.188 7h10v10h-10z"/>
        </g>
        <g class="highcharts-legend-item highcharts-line-series highcharts-color-undefined highcharts-series-2">
            <path fill="none" d="M163.25 13h16" class="highcharts-graph" stroke="#000" stroke-width="2"/>
            <text x="21" y="13" color="#333" font-size="10" font-weight="400" cursor="pointer" fill="#333" transform="translate(163.25 3)">
                <tspan>Ausländeranteil</tspan>
            </text>
        </g>
    </g>
    <g class="highcharts-axis-labels highcharts-xaxis-labels" text-anchor="middle" color="#000" cursor="default" font-size="10">
        <text x="72.35" y="199">
            1997
        </text>
        <text x="129.75" y="199">
            1999
        </text>
        <text x="187.15" y="199">
            2001
        </text>
        <text x="244.55" y="199">
            2003
        </text>
        <text x="301.95" y="199">
            2005
        </text>
        <text x="359.35" y="199">
            2007
        </text>
        <text x="416.75" y="199">
            2009
        </text>
        <text x="474.15" y="199">
            2011
        </text>
        <text x="531.55" y="199">
            2013
        </text>
        <text x="588.95" y="199">
            2015
        </text>
    </g>
    <g class="highcharts-axis-labels highcharts-yaxis-labels" text-anchor="end" color="#666" cursor="default" font-size="11" fill="#666">
        <text x="43" y="184">
            <tspan>0</tspan>
        </text>
        <text x="43" y="118">
            <tspan>120 000</tspan>
        </text>
        <text x="43" y="53">
            <tspan>240 000</tspan>
        </text>
    </g>
    <g class="highcharts-axis-labels highcharts-yaxis-labels" color="#666" cursor="default" font-size="11" fill="#666">
        <text x="647" y="184">
            <tspan>0.0</tspan>
        </text>
        <text x="647" y="118">
            <tspan>0.2</tspan>
        </text>
        <text x="647" y="53">
            <tspan>0.4</tspan>
        </text>
    </g>
    <text x="10" class="highcharts-credits" y="193" cursor="default" color="#000" font-size="10">
        <tspan>Quelle: Statistisches Amt Basel-Stadt, kantonale Bevölkerungsstatistik</tspan>
    </text>
</svg>
